src/icons/icons_set_01/013-smiley-excellent.svg

<svg height="50" viewBox="0 0 50 50" width="50" xmlns="http://www.w3.org/2000/svg"><g transform="translate(2.995 2.995)"><path d="m37.4125563 6.59974483c8.5012388 8.51583897 8.5012388 22.30587407 0 30.82171297-8.5097638 8.5037541-22.301445 8.5005064-30.80720283-.0072545-8.50575786-8.5077612-8.50575786-22.2994427 0-30.80720381 8.50575783-8.50776109 22.29743903-8.51100883 30.80720283-.00725466zm-29.39282276 1.4213017c-7.72493129 7.72675067-7.72493129 20.25235897-.00000001 27.97910967 7.72493127 7.7267505 20.25053937 7.7297 27.97825257.0074453 7.7208085-7.7340693 7.7209511-20.2593254.0004279-27.99357175-7.728604-7.72268333-20.2538919-7.71959107-27.97868046.00701678z"/><path d="m32.00338 25.1529493c.1048872.157893.1228025.3581214.0476113.5321267-1.6804 3.881724-5.6013333 6.3883207-10.0179846 6.3883207-4.4978707 0-8.4552127-2.5206-10.0824-6.419128-.0725291-.1741454-.0525282-.373102.0532126-.529326.1036981-.1554264.2780671-.2489134.4649107-.2492594l19.0445333.0224054c.1898995-.0002969.3670168.0956417.470512.2548606zm-17.467758-7.3489493c-.7303531-1.0007936-.5912111-2.3907417.3230318-3.2269015.914243-.8361598 2.3110594-.8509881 3.2428472-.0344251.9317878.8165629 1.1004056 2.2032439.391463 3.2193166-.4615298-.6367557-1.2031467-1.0102095-1.9895295-1.0018615-.7863827.008348-1.5199044.3974615-1.9678125 1.0438715zm11.015022 0c-.6169046-.8511442-.6160701-2.0025929.0020676-2.8528421.6181378-.8502491 1.7131896-1.2061933 2.7131126-.8818912.9999232.324302 1.6776184 1.255196 1.6790658 2.3063933.0046345.5010179-.14819.9908402-.436904 1.4003333-.4609166-.6367458-1.2021225-1.0102793-1.9881375-1.0019293-.7860151.0083501-1.5191184.3975455-1.9664038 1.0439393z"/></g></svg>

<?xml version="1.0" encoding="UTF-8"?>
<svg width="50px" height="50px" viewBox="0 0 50 50" version="1.1" xmlns="http://www.w3.org/2000/svg" xmlns:xlink="http://www.w3.org/1999/xlink">
    <!-- Generator: Sketch 52.2 (67145) - http://www.bohemiancoding.com/sketch -->
    <title>013-smiley-excellent</title>
    <desc>Created with Sketch.</desc>
    <g id="013-smiley-excellent" stroke="none" stroke-width="1" fill="none" fill-rule="evenodd">
        <g id="Group" transform="translate(2.995000, 2.995000)" fill="#000000" fill-rule="nonzero">
            <g id="007-smiley-excellent">
                <g id="ICONSET-01">
                    <g id="007-smiley-excellent">
                        <path d="M37.4125563,6.59974483 C45.9137951,15.1155838 45.9137951,28.9056189 37.4125563,37.4214578 C28.9027925,45.9252119 15.1111113,45.9219642 6.60535347,37.4142033 C-1.90040439,28.9064421 -1.90040439,15.1147606 6.60535347,6.60699949 C15.1111113,-1.9007616 28.9027925,-1.90400934 37.4125563,6.59974483 Z M8.01973354,8.02104653 C0.294802249,15.7477972 0.294802249,28.2734055 8.01973353,36.0001562 C15.7446648,43.7269067 28.2702729,43.7298562 35.9979861,36.0076015 C43.7187946,28.2735322 43.7189372,15.7482761 35.998414,8.01402975 C28.26981,0.291346423 15.7445221,0.294438684 8.01973354,8.02104653 Z" id="Shape-path"></path>
                        <path d="M32.00338,25.1529493 C32.1082672,25.3108423 32.1261825,25.5110707 32.0509913,25.685076 C30.3705913,29.5668 26.449658,32.0733967 22.0330067,32.0733967 C17.535136,32.0733967 13.577794,29.5527967 11.9506067,25.6542687 C11.8780776,25.4801233 11.8980785,25.2811667 12.0038193,25.1249427 C12.1075174,24.9695163 12.2818864,24.8760293 12.46873,24.8756833 L31.5132633,24.8980887 C31.7031628,24.8977918 31.8802801,24.9937304 31.9837753,25.1529493 L32.00338,25.1529493 Z M14.535622,17.804 C13.8052689,16.8032064 13.9444109,15.4132583 14.8586538,14.5770985 C15.7728968,13.7409387 17.1697132,13.7261104 18.101501,14.5426734 C19.0332888,15.3592363 19.2019066,16.7459173 18.492964,17.76199 C18.0314342,17.1252343 17.2898173,16.7517805 16.5034345,16.7601285 C15.7170518,16.7684765 14.9835301,17.15759 14.535622,17.804 Z M25.550644,17.804 C24.9337394,16.9528558 24.9345739,15.8014071 25.5527116,14.9511579 C26.1708494,14.1009088 27.2659012,13.7449646 28.2658242,14.0692667 C29.2657474,14.3935687 29.9434426,15.3244627 29.94489,16.37566 C29.9495245,16.8766779 29.7967,17.3665002 29.507986,17.7759933 C29.0470694,17.1392475 28.3058635,16.765714 27.5198485,16.774064 C26.7338334,16.7824141 26.0007301,17.1716095 25.5534447,17.8180033 L25.550644,17.804 Z" id="Shape"></path>
                    </g>
                </g>
            </g>
        </g>
    </g>
</svg>
